X:1
T:Alme Deus
T:ALME DEUS  /  O ALLMÄCHT'GER
T:Sammlung MUSICA SACRA, 1856 - No. 34
T:*)
T:(*) Mit anderem Text unter dem Titel "Alma nemes".
T:*) Mit anderem Text unter dem Titel "Alma nemes".
T:Orlando di LASSO
T:© Edition Monika Feinen, Creative Commons Attribution-NonCommercial-ShareAlike 4.0
T:© Edition Monika Feinen, Creative Commons Attribution-NonCommercial-ShareAlike 4.0
T:© Edition Monika Feinen, Creative Commons Attribution-NonCommercial-ShareAlike 4.0
T:© Edition Monika Feinen, Creative Commons Attribution-NonCommercial-ShareAlike 4.0
T:© Edition Monika Feinen, Creative Commons Attribution-NonCommercial-ShareAlike 4.0
C:Orlando di Lasso
Z:© Edition Monika Feinen, Creative Commons Attribution-NonCommercial-ShareAlike 4.0
%%score [ ( 1 2 ) ( 3 4 ) ( 5 6 ) ( 7 8 ) ]
L:1/8
M:4/2
K:C
V:1 treble nm="CANTO."
V:2 treble 
V:3 treble nm="ALTO."
V:4 treble 
V:5 treble-8 transpose=-12 nm="TENORE."
V:6 treble-8 transpose=-12 
V:7 bass nm="BASSO."
V:8 bass 
V:1
 z16 | z16 | E16 | ^F16 | G8 E8 | z4 D4 G8 | A4 G2 A2 B2 c2 d4 | B8 z4 c4 | c8 x4 G4- | %9
w: ||Al-|me|De- us,|qui cun-|cta te- * * * *|nes quae||
w: ||O|All-|mächt'- ger,|des *|Welt- * * * * *|alls, Er-|hal- und|
 G4 F2 F2 c8 | G8 z4 B4 | c8 A4 c4- | c2 B2 A2 G2 F6 F2 | E4 E4 D4 E4 | c6 B2 A4 A4 | G4 G8 F4 | %16
w: * bis, quem ma-|re, quem|tel- lus a-|* * * * * stra-|que, quem tel- lus|a- * * stra-|que cun- cta|
w: Len- ker, den Er-|de und|Him- mel, den|_ _ _ _ Erd' und|Him- mel, Erd' und|Him- * * mel|eh- ren und|
 E8 E4 E4- | E4 A8 G4 | F6 E2 G2 D2 G4- | G2 FE F4 E8 | z4 e8 A4- | A4 A4 B8 | E8 z4 D4 | %23
w: co- lunt, qui|_ pel- lis|nu- * * * *|* * * * bes,|qui pel-|* lis nu-|bes, qui|
w: prei- sen, auf|_ des- sen|Win- * * * *|* * * * ke,|auf des-|* sen Win-|ke des|
 A4 B4 c8 | G4 G4 _B8- | B16 | A4 A2 G2 F2 G2 A2 B2 | c2 A2 B2 c2 A4 D4 | z8 | z8 | z4 d4 c4 B4 | %31
w: cae- lum fron-|te se- re-||nas, val- * * * * *|* * * * * les|||ac mon- tes|
w: Stur- mes Wol-|ken sich tei-||len, der _ _ _ _ _|_ _ _ _ Ber- ge|||und Tä- ler|
 ^c4 d4 B8 | G8 ^G8- | G4 A4 A8 | z4 e8 e4 | ^c8 d4 A4 | B8 d8 | G8 z4 A4- | A4 A4 ^F8 | ^F16 | %40
w: un- di- que|ro- re|_ te- gens,|er- go|ti- bi, er-|go ti-|bi, er-|* go ti-|bi|
w: ü- ber- all|mit Tau|_ be- deckt,|da- rum|soll heut', da-|rum soll|heut', da-|* rum soll|heut'|
 z8 z4 A4- | A4 A4 B6 B2 | c4 A4 A4 G4- | G2 G2 G4 F4 E4 | F16 | E6 F2 G8 | z16 | %47
w: gra-|* ta mo- du-|lan- ti- a car-|* mi- na men- te|fun-|* * do,||
w: laut|_ aus vol- ler|Keh- le ein Lob-|* ge- sang dir er-|schal-|* * len;||
 z4 G4 E2 D2 E2 F2 | G2 F2 D2 E2 F2 G2 A2 B2 | c4 c4 B8 | A4 ^F2 G2 A2 E2 A4 | A8 ^A8 | B4 B4 ^G8 | %53
w: ca- no _ _ _|_ _ _ _ _ _ _ _|* que si-|mul dul- * * * *|ce no-|vum- que me-|
w: er stei- * * *||* ge prei-|* * * * * send|auf zu|dei- nem Thro-|
 A8 z4 ^F4- | F4 ^F4 G8- | G4 G4 A8- | A16 | ^G16 |] %58
w: los, dul-|* ce no-|vum- que me-||los.|
w: ne, auf|_ zu dei-|* nem Thro-||ne.|
V:2
 x16 | x16 | x16 | x16 | x16 | x8 G4 G4 | x16 | x16 | c6 c2 A4 x4 | G4 x12 | x16 | x16 | x16 | %13
w: ||||||||con- ti- net|||||
w: |||||gan- zen||||||||
 x16 | x16 | x16 | x16 | x16 | x16 | x16 | x16 | x16 | x16 | x16 | x16 | x16 | x16 | x16 | x8 | %29
w: ||||||||||||||||
w: ||||||||||||||||
 x8 | x16 | x16 | x16 | x16 | x16 | x16 | x16 | x16 | x16 | x16 | x16 | x16 | x16 | x16 | x16 | %45
w: ||||||||||||||||
w: ||||||||||||||||
 x16 | x16 | x16 | x16 | x16 | x16 | x16 | x16 | x16 | x16 | x16 | x16 | x16 |] %58
w: |||||||||||||
w: |||||||||||||
V:3
 z8 E8- | E8 ^D4 E4- | E4 A,4 A,8 | z4 A8 D4- | D4 E6 D2 C4- | C2 B,2 B,2 A,B, C2 D2 E2 D2 | %6
w: Al-|* me De-|* * us,|qui cun-|* cta _ _||
w: O|_ du All-|* mächt'- ger,|des gan-||* * * * * * * zen _|
 F4 E8 D4 | G4 G6 G2 E4 | A8 F4 E4 | D8 E8- | E8 z4 E4- | E4 F8 E4 | C6 C2 D8 | z4 G,4 G6 F2 | %14
w: * te- nes|quae con- ti- net|or- bis, quem|ma- re,|_ quem|_ tel- lus|a- stra- que,|quem tel- *|
w: Welt- alls Er-|hal- ter * und|Len- ker, den|Er- de|_ und|_ Him- mel|eh- * ren,|den Er- *|
 E2 D2 E4 F4 F4- | F2 E2 E4 E4 D4 | B,8 ^C6 D2 | E8 z8 | z8 D8- | D4 A8 G4 | G6 F2 E8 | %21
w: * * * lus a-|* stra- que cun- cta|co- * *|lunt,|qui|_ pel- lis|nu- * *|
w: * * * de, Him-|* mel und Ster- ne|prei- * *|sen,|auf|_ des- sen|Win- * *|
 A,8 z4 G,4 | G8 A4 A4 | ^F4 G4 E4 E4- | E2 D2 E2 F2 G4 G4 | F4 F4 G8 | F4 F2 E2 D2 E2 F2 D2 | %27
w: bes, qui|cae- lum fron-|te se- re- nas,|_ _ _ _ _ fron-|te se- re-|nas, val- * * * * *|
w: ke die|Wol- ken, die|Wol- * ken des|_ _ _ _ Stur- mes|sich zer- tei-|len, der _ _ _ _ _|
 E2 F2 G2 E2 ^F4 G4 | z8 | z8 | z4 F4 E6 E2 | E4 ^F4 G8 | E8 E8- | E4 E4 E8- | E8 A8- | A4 A4 ^F8 | %36
w: * * * * * les|||ac mon- tes|un- di- que|ro- re|_ te- gens,|_ er-|* go ti-|
w: _ _ _ _ Ber- ge|||und Tä- ler|ü- ber- all|mit Tau|_ be- deckt,|_ dar-|* um soll|
 G6 !courtesy!=FE D4 D4 | E8 A,6 B,2 | ^C4 D4 A,6 A,2 | B,8 ^D8 | E4 E4 E6 E2 | ^F8 G8 | E4 F8 E4 | %43
w: bi, _ _ _ er-|go ti- *|* bi, er- go|ti- bi|gra- ta mo- du-|lan- ti-|a car- mi-|
w: heut', _ _ _ dar-|um soll _|_ heut', dar- um|soll heut'|laut aus vol- ler|Keh- le|ein Lob- ge-|
 D4 D8 C4- | C2 B,2 A,4 D8 | G,4 G4 E2 D2 E2 F2 | G2 F2 D2 E2 F8 | E6 F2 G4 C4 | D12 C4- | %49
w: na men- te|_ _ _ fun-|do, ca- no _ _ _|_ _ _ _ _|* * * que|si- mul,|
w: sang dir er-|* * * schal-|len; er stei- * * *||* * * ge|prei- send|
 C4 G8 D2 E2 | ^F2 G2 A2 D2 E4 E4 | ^F8 F4 F4 | ^F4 F4 B,4 B,4 | E8 ^C4 A,4 | A,8 B,8 | %55
w: _ ca- no _|_ _ _ _ _ que|si- mul dul-|ce no- vum- que|me- los, dul-|ce no-|
w: _ auf, er _|stei- * * * * ge|prei- send zu|dei- nem ho- hen|Thro- ne, er-|stei- ge|
 B,4 B,4 ^C6 D2 | E16 | E16 |] %58
w: vum- que me- *||los.|
w: auf zu dei- nem|Thro-|ne.|
V:4
 x16 | x16 | x16 | x16 | x16 | x16 | x16 | x4 G8 x4 | x16 | x16 | x16 | x16 | C8 x8 | x16 | x16 | %15
 x16 | x16 | x16 | x16 | x16 | x16 | x16 | x16 | x16 | x16 | x16 | x16 | x16 | x8 | x8 | x16 | %31
 x16 | x16 | x16 | x16 | x16 | x16 | x16 | x16 | x16 | x16 | x16 | x16 | x16 | x16 | x16 | x16 | %47
 x16 | x16 | x16 | x16 | x16 | x16 | x16 | x16 | x16 | x16 | x16 |] %58
V:5
 z16 | B16 | ^c16 | d8 A8 | B8 z4 A4 | d8 e2 d2 c2 B2 | A2 F2 c4 G2 A2 B2 c2 | d8 G8 | %8
w: |Al-|me|De- *|us, qui|cun- cta _ _ _|_ _ _ te- * * *|* nes|
w: |O|All-|mächt'- *|ger, des|gan- * * * *|* * zen Welt- * * *|* alls|
 z4 c4 c6 c2 | A4 A8 A2 A2 | c8 B8 | z16 | A16 | c8 B4 c4- | c2 B2 A2 G2 F6 F2 | c4 c8 A4 | %16
w: quae con- ti-|net or- bis, quem|ma- re,||quem|tel- lus a-|* * * * * stra-|que cun- cta|
w: |Len- ker, * *|Er- de,||den|Er- de und|_ _ _ _ Him- mel|eh- ren und|
 ^G8 A8 | ^c8 d8- | d4 =c4 _B8 | A4 A4 c8- | c4 B4 ^c8 | d16 | z4 c4 f8 | d4 G8 g4- | g4 c4 d8 | %25
w: co- lunt,|qui pel-|* lis nu-|bes, qui pel-|* lis nu-|bes,|qui cae-|lum, qui cae-|* lum fron-|
w: prei- sen,|auf des-|* sen Win-|ke, auf des-|* sen Win-|ke|des Stur-|mes, des Stur-|* mes Wol-|
 d4 d4 _e8 | c8 z8 | z8 z4 B2 A2 | G2 A2 B2 c2 | d2 B2 c2 d2 | B4 A4 z4 ^G4 | A4 A4 d4 d4 | %32
w: te se- re-|nas,|val- *|||* les ac|mon- tes un- di-|
w: ken sich tei-|len,|der _|_ _ _ _||Ber- ge und|Tä- ler ü- ber-|
 c4 c4 B8- | B4 ^c4 c8- | c8 z8 | z8 z4 d4- | d4 d4 B8 | B4 c8 f4 | e4 f4 d8- | d4 d4 B8 | %40
w: que ro- re|_ te- gens,|_|er-|* go ti-|bi, er- go|ti- bi, er-|* go ti-|
w: all mit Tau|_ be- deckt,|_|dar-|* um soll|heut', dar- um|soll heut', dar-|* um soll|
 G4 c4 ^c4 c2 c2 | d8 d8 | c8 c6 c2 | G8 z4 A4 | A4 c6 BA B4 | c8 z4 c4 | B2 A2 B2 c2 d2 c2 A2 B2 | %47
w: bi gra- ta mo- du-|lan- ti-|a car- mi-|na men-|te fun- * * *|do, ca-|no _ _ _ _ _ _ _|
w: laut aus jauch- zen- der|Keh- le|ein Lob- ge-|sang er-|schal- * * * *|len; er|stei- * * * * * * *|
 c12 A4 | _B8 A8 | z4 e4 d2 c2 B2 c2 | d2 c2 A2 B2 ^c4 c4 | d4 d4 ^c8 | ^d4 d4 e4 e4 | %53
w: _ que|si- mul,|ca- no _ _ _|_ _ _ _ _ que|si- mul dul-|ce no- vum- que|
w: * ge|prei- send,|er stei- * * *|* * * * * ge|prei- send em-|por zu dei- nem|
 ^c6 d2 e4 d4- | d4 d8 d4 | e8 e4 e4 | ^c16 | B16 |] %58
w: me- * * los,|_ dul- ce|no- vum- que|me-|los.|
w: Thro- * * ne,|_ auf zu|dei- * nem|Thro-|ne.|
V:6
 x16 | x16 | x16 | x16 | x16 | x16 | x16 | x16 | x4 x4 c4 c2 x2 | x12 A4 | x16 | x16 | x16 | x16 | %14
w: ||||||||||||||
w: ||||||||hal- ter|den|||||
 x16 | x16 | x16 | x16 | x16 | x16 | x16 | x16 | x16 | x16 | x16 | x16 | x16 | x16 | x8 | x8 | %30
w: ||||||||||||||||
w: ||||||||||||||||
 x16 | x16 | x16 | x16 | x16 | x16 | x16 | x16 | x16 | x16 | x16 | x16 | x16 | x16 | x16 | x16 | %46
w: ||||||||||||||||
w: ||||||||||||||||
 x16 | x16 | x16 | x16 | x16 | x16 | x16 | x16 | x16 | x16 | x16 | x16 |] %58
w: ||||||||||||
w: ||||||||||||
V:7
 E,16 | ^G,16 | A,8 A,,8 | z8 D,8 | G,8 A,8 | G,8 C,8 | z8 z4 G,4 | G,6 G,2 E,8 | F,8 F,4 C,4 | %9
w: Al-|me|De- us,|qui|cun- cta|te- nes|quae|con- ti- net|or- bis, quem|
w: O|All-|mächt'- ger,|des|gan- zen|Welt- alls|Er-||Len- ker, den|
 D,8 A,,8 | z8 E,8 | A,8 D,4 A,4- | A,2 G,2 F,2 E,2 D,6 D,2 | C,8 z8 | z16 | C,12 D,4 | E,8 A,,8 | %17
w: ma- re,|quem|tel- lus a-|* * * * * stra-|que||cun- cta|co- lunt,|
w: Er- de|und|Him- mel, Erd'|_ _ und * * *|mel|||prei- sen,|
 A,8 _B,8- | B,4 A,4 G,8 | D,8 z8 | E,8 A,8 | ^F,8 G,8 | C,8 z8 | z8 C,8 | C8 G,4 G,4 | %25
w: qui pel-|* lis nu-|bes,|qui pel-|lis nu-|bes,|qui|cae- lum fron-|
w: auf des-|* sen Win-|ke,|auf *|Win- *|ke|die|Wol- ken des|
 _B,4 B,4 _E,8 | F,8 z8 | z8 z4 G,2 F,2 | E,2 F,2 G,2 E,2 | F,2 G,2 A,2 F,2 | G,4 D,4 z4 E,4 | %31
w: te se- re-|nas,|val- *|||* les ac|
w: Sturm sich tei-|len,|der _|_ _ _ _||Ber- ge und|
 A,,4 D,4 G,,4 G,,4 | C,4 C,4 E,8- | E,4 A,4 A,8- | A,8 z8 | z16 | G,12 G,4 | E,8 F,8 | %38
w: mon- tes un- di-|que ro- re|_ te- gens,|_||er- go|ti- bi,|
w: Tä- ler ü- ber-|all mit Tau|_ be- deckt,|_||dar- um|soll heut',|
 z4 D,8 D,4 | B,,12 B,,4 | C,4 A,,4 A,4 A,4 | D,6 D,2 G,4 G,2 G,2 | A,4 F,2 G,2 A,2 F,2 C4- | %43
w: er- go|ti- bi|gra- ta mo- du-|lan- ti- a car- mi-|na men- * * * *|
w: dar- um|soll heut'|laut ein Lob- ge-|sang aus jauch- zen- der|Keh- * * * * *|
 C4 _B,4 A,6 G,2 | F,6 E,2 D,8 | C,16 | z16 | z16 | z4 G,4 D,2 E,2 F,2 G,2 | %49
w: * te fun- *||do,|||ca- no _ _ _|
w: * le dir er-|schal- * *|len;|||er stei- * * *|
 A,2 G,2 E,2 F,2 G,4 G,4 | D,4 D,4 A,,8 | D,8 ^F,8 | B,,4 B,,4 E,8 | A,,4 A,8 D,4 | D,8 G,8 | %55
w: _ _ _ _ _ que|si- mul dul-|ce no-|vum- que me-|los, dul- ce|no- vum-|
w: * * * * * ge|prei- send em-|por zu|dei- nem Thro-|ne, zu dei-|* nem|
 E,8 A,8- | A,16 | E,16 |] %58
w: que me-||los.|
w: ho- hen|Thro-|ne.|
V:8
 x16 | x16 | x16 | x16 | x16 | x16 | x16 | G,8 E,4 E,4 | x16 | x16 | x16 | x16 | x8 D,8 | x16 | %14
w: ||||||||||||||
w: |||||||hal- ter und|||||Him-||
 x16 | C,8 C,4 x4 | x16 | x16 | x16 | x16 | x8 A,4 A,4 | x16 | x16 | x16 | x16 | x16 | x16 | x16 | %28
w: ||||||||||||||
w: |eh- ren|||||des- sen||||||||
 x8 | x8 | x16 | x16 | x16 | x16 | x16 | x16 | x16 | x16 | x16 | x16 | x16 | x16 | x16 | x16 | %44
w: ||||||||||||||||
w: ||||||||||||||||
 x16 | x16 | x16 | x16 | x16 | x16 | x16 | x16 | x16 | x16 | x16 | x16 | x16 | x16 |] %58
w: ||||||||||||||
w: ||||||||||||||

